X:1
T:Title
%%score { 1 | 2 }
L:1/8
Q:1/4=118
M:4/4
K:Eb
V:1 treble nm="Grand Piano"
V:2 bass 
V:1
 [EG]2 [FA]2 [GB]2 [Ge]2 | [GB]4 [EG]4 | [DF]2 [EG]2 [FA]2 [Ac]2 | [GB]6 z2 | %4
w: H.~Millard * * *||||
 [EG]2 [FA]2 [GB]2 [Ge]2 | [GB]4 G4 | F2 B2 d2 c2 | [DB]6 z2 | c2 F2 F2 F2 | B4 E4 | %10
w: ||||||
 A2 G2 [DA]2 [DF]2 | G6 z2 | G2 A2 B2 e2 | e4 F4 | [Dc]2 [DB]2 [DB]2 [B,D]2 |[M:8/4] [B,E]8 z8 | %16
w: ||||||
[M:4/4] [CE]4 [B,E]4 |] %17
w: |
V:2
 [E,B,]2 [E,B,]2 [E,B,]2 [E,B,]2 | [E,B,]4 [E,B,]4 | [B,,B,]2 [B,,B,]2 [D,B,]2 [E,B,]2 | %3
 [E,B,]6 z2 | [E,B,]2 [E,B,]2 [E,B,]2 [E,B,]2 | [E,B,]4 [E,B,E]4 | %6
 [F,B,D]2 [F,B,D]2 [F,B,F]2 [F,=A,E]2 | [B,,B,]6 z2 | [A,CE]2 [A,CE]2 [A,CE]2 [A,CE]2 | %9
 [G,B,E]4 [G,B,]4 | [F,B,D]2 [F,B,D]2 [B,,B,]2 [B,,B,]2 | [E,B,E]6 z2 | %12
 [E,B,E]2 [F,B,E]2[K:treble] [G,B,E]2 [G,B,E]2 | [A,CF]4[K:bass] [A,C]4 | %14
 [B,,B,]2 [B,,B,]2 [B,,A,]2 [B,,A,]2 |[M:8/4] [E,G,]8 z8 |[M:4/4] [A,,A,]4 [E,G,]4 |] %17

